!!!COM: Gabriel Faure/
!!!CNT: Francais
!!!TXO: Francais
!!!OTL: "Arpe\ge"
!!!LYR: Samain
!!!OPR:
!!!OPS: Op. 76
!!!ONM: No. 2
!!!ENC: Emily Thomas
!!!YOR: CD Sheet Music French Art Songs, The Ultimate Collection
!!!YOR: CD Sheet Music, LLC 2003
!!!ODT: 1897/
!!NB: Vocal melody and text encoded.
**kern	**silbe
=1	=1
*clefG2	*
*k[f#]	*
*M9/8	*
*MM[Andante quasi allegretto]	*
2.r	.
4.r	.
=2	=2
2.r	.
4.r	.
=3	=3
{4.b	{L'a^-
8b	-me
8b	d'u-
8cc	-ne
8.a	flu^-
16g	-te
8a	sou-
=4	=4
4.a	-pi-
[4.b	-re
4b]}	|}
{8b	{Au
=5	=5
4cc	fond
8g	du
4e-	parc
8fn	me/-
4g	-lo-
8a	-di-
=6	=6
[4.b	-eux;
4b]}	|}
8r	.
8r	.
8r	.
{8ee-	{Lim-
=7	=7
4dd	-pide
8b	est
4g	l'ombre
8d	ou\
4e-	l'on
8e-	res-
=8	=8
4.d#	-pi-
4.d#	-re
4e	Ton
8b	po-
=9	=9
[4.a	-e\-
8a]	|
8g	-me
8e	si-
4e	-len-
8f#	-ci-
=10	=10
4.g}	-eux,}
{4.g	{Nuit
4g	de
8e	lan-
=11	=11
4.fn	-gueur,
4.b-	nuit
4b-	de
8b-	men-
=12	=12
4.bn	-son-
[4.bn	-ge,
4bn]}	|}
{8b	{Qui
=13	=13
4.cc	po-
4a	-ses,
8a	d'un
8g	geste
8fn	on-
8g	-doy-
=14	=14
4a}	-ant,}
{8a	{Dans
8b	ta
8a	che-
8b	-ve-
8.cc	-lu-
16b	-re
8cc	de
=15	=15
4.dd	son-
[4.d	-ge
8d]}	|}
8r	.
{8b	{La
=16	=16
2.dd	lu-
[4.cc	-ne
=17	=17
4cc]	|
8cc	bi-
4.cc	-jou
4b	d'O-
8b	-ri-
=18	=18
[2.f#	-ent.
4.f#_	|
=19	=19
2.f#]}	|}
4r	.
8r	.
=20	=20
4r	.
8r	.
8r	.
8r	.
{8g	{Sly-
4.g	-va,
=21	=21
8r	.
8r	.
8g	Syl-
4f#	-vie
8b	et
4b	Syl
8b	va-
=22	=22
2.b	-ni-
4.g}	-re,}
=23	=23
4r	.
8r	.
{4.f#	{Bel-
4f#	-les
8f#	au
=24	=24
4g#	re-
8g#	-gard
[4.g#	bleu
4g#]	|
8b	chan-
=25	=25
[4.b	-geant,
8b]}	|}
8r	.
8r	.
8r	.
8r	.
{8a#	{De/-
=26	=26
4.dd#	-toile
4a#	aux
8a#	fon-
8b	-tai-
8a#	-nes
8b	se
=27	=27
4.cc	mi-
[4.a	-re.
8a]}	|}
8r	.
8r	.
=28	=28
8r	.
8r	.
{8bn	{Al-
4ee-	-lez
8ee-	par
4dd	les
8dd	sen-
=29	=29
4cc	-tiers
8cc	d'ar-
[2.b	-gent.
=30	=30
8b]}	|}
8r	.
8r	.
4r	.
8r	.
4r	.
8r	.
=31	=31
4r	.
8r	.
4r	.
8r	.
{4a	{Al-
8a	-lez
=32	=32
4a	vi-
8a	-te,
4.fn	l'heure
4f#	est
8f##	si
=33	=33
4.g#	bre\-
[4.g#	-ve,
8g#]}	|}
8r	.
{8g#	{Oueil-
=34	=34
8an	-lir
8e	nu
8a	jar-
4.a	-din
4b-	des
8b-	a-
=35	=35
[2.ccn	-veux
8ccn]}	|}
8r	.
{8ccn	{Les
=36	=36
2.cc#	coeurs
4ddn	qui
8dd#	se
=36	=36
2.ee	men-
4ccn	-rent
8ccn	du
=37	=37
4.a	re^-
4.a}	-ve}
{4a	{De
8a	mou-
=38	=38
[2.b	-rir
4b]	|
8b	par-
=39	=39
2.b	-mi
4b	vos
8b	che-
=40	=40
[2.b	-veux!
4.b_	|
=41	=41
2.b_	|
4.b]}	|}
==	==
*-	*-
